icons/lightbulb.svg

<svg xmlns="http://www.w3.org/2000/svg" width="96" height="96"><path d="M44 64c0-3.8-1.7-7.3-4.7-9.6-3.7-2.9-6.9-6.5-9.3-10.6-1.4-2.3-2.1-5-2-7.7.1-5.3 2.2-10.4 5.9-14.1 3.8-3.7 8.8-5.9 14.1-6 5.3.1 10.3 2.3 14.1 6 3.7 3.8 5.8 8.8 5.9 14.1.1 2.7-.6 5.4-2 7.7-2.4 4.1-5.6 7.7-9.3 10.6-3 2.3-4.7 5.8-4.7 9.6h-8zm0 8v8h8v-8h-8zm4-64c-7.4.1-14.4 3.1-19.7 8.3-5.2 5.2-8.2 12.3-8.3 19.6-.1 4.2 1 8.4 3.1 12 2.9 4.9 6.8 9.3 11.3 12.8 1 .8 1.6 2 1.6 3.3v16c0 2.1.8 4.2 2.3 5.7 1.5 1.5 3.6 2.3 5.7 2.3h8c2.1 0 4.2-.8 5.7-2.3 1.5-1.5 2.3-3.6 2.3-5.7V64c0-1.3.6-2.5 1.6-3.3 4.5-3.5 8.4-7.9 11.3-12.8 2.1-3.6 3.2-7.8 3.1-12-.1-7.4-3.1-14.4-8.3-19.6C62.4 11.1 55.4 8.1 48 8z" fill-rule="evenodd" fill="#454545"/></svg>

<?xml version="1.0" standalone="no"?><!-- Generator: Gravit.io --><svg xmlns="http://www.w3.org/2000/svg" xmlns:xlink="http://www.w3.org/1999/xlink" width="96" height="96"><path d=" M 44 64 C 44 60.2 42.3 56.7 39.3 54.4 C 35.6 51.5 32.4 47.9 30 43.8 C 28.6 41.5 27.9 38.8 28 36.1 C 28.1 30.8 30.2 25.7 33.9 22 C 37.7 18.3 42.7 16.1 48 16 L 48 16 C 53.3 16.1 58.3 18.3 62.1 22 C 65.8 25.8 67.9 30.8 68 36.1 C 68.1 38.8 67.4 41.5 66 43.8 C 63.6 47.9 60.4 51.5 56.7 54.4 C 53.7 56.7 52 60.2 52 64 L 44 64 Z  M 44 72 L 44 80 L 52 80 L 52 72 L 44 72 Z  M 48 8 C 40.6 8.1 33.6 11.1 28.3 16.3 C 23.1 21.5 20.1 28.6 20 35.9 C 19.9 40.1 21 44.3 23.1 47.9 C 26 52.8 29.9 57.2 34.4 60.7 C 35.4 61.5 36 62.7 36 64 L 36 72 L 36 80 C 36 82.1 36.8 84.2 38.3 85.7 C 39.8 87.2 41.9 88 44 88 L 52 88 C 54.1 88 56.2 87.2 57.7 85.7 C 59.2 84.2 60 82.1 60 80 L 60 72 L 60 64 C 60 62.7 60.6 61.5 61.6 60.7 C 66.1 57.2 70 52.8 72.9 47.9 C 75 44.3 76.1 40.1 76 35.9 C 75.9 28.5 72.9 21.5 67.7 16.3 C 62.4 11.1 55.4 8.1 48 8 L 48 8 Z " fill-rule="evenodd" fill="#454545" stroke="none"/><mask id="_mask_Mv5jPGlI95DNKNll3UFlPdWY8maMnFQL"><path d=" M 44 64 C 44 60.2 42.3 56.7 39.3 54.4 C 35.6 51.5 32.4 47.9 30 43.8 C 28.6 41.5 27.9 38.8 28 36.1 C 28.1 30.8 30.2 25.7 33.9 22 C 37.7 18.3 42.7 16.1 48 16 L 48 16 C 53.3 16.1 58.3 18.3 62.1 22 C 65.8 25.8 67.9 30.8 68 36.1 C 68.1 38.8 67.4 41.5 66 43.8 C 63.6 47.9 60.4 51.5 56.7 54.4 C 53.7 56.7 52 60.2 52 64 L 44 64 Z  M 44 72 L 44 80 L 52 80 L 52 72 L 44 72 Z  M 48 8 C 40.6 8.1 33.6 11.1 28.3 16.3 C 23.1 21.5 20.1 28.6 20 35.9 C 19.9 40.1 21 44.3 23.1 47.9 C 26 52.8 29.9 57.2 34.4 60.7 C 35.4 61.5 36 62.7 36 64 L 36 72 L 36 80 C 36 82.1 36.8 84.2 38.3 85.7 C 39.8 87.2 41.9 88 44 88 L 52 88 C 54.1 88 56.2 87.2 57.7 85.7 C 59.2 84.2 60 82.1 60 80 L 60 72 L 60 64 C 60 62.7 60.6 61.5 61.6 60.7 C 66.1 57.2 70 52.8 72.9 47.9 C 75 44.3 76.1 40.1 76 35.9 C 75.9 28.5 72.9 21.5 67.7 16.3 C 62.4 11.1 55.4 8.1 48 8 L 48 8 Z " fill-rule="evenodd" fill="white" stroke="none"/></mask><path d=" M 44 64 C 44 60.2 42.3 56.7 39.3 54.4 C 35.6 51.5 32.4 47.9 30 43.8 C 28.6 41.5 27.9 38.8 28 36.1 C 28.1 30.8 30.2 25.7 33.9 22 C 37.7 18.3 42.7 16.1 48 16 L 48 16 C 53.3 16.1 58.3 18.3 62.1 22 C 65.8 25.8 67.9 30.8 68 36.1 C 68.1 38.8 67.4 41.5 66 43.8 C 63.6 47.9 60.4 51.5 56.7 54.4 C 53.7 56.7 52 60.2 52 64 L 44 64 Z  M 44 72 L 44 80 L 52 80 L 52 72 L 44 72 Z  M 48 8 C 40.6 8.1 33.6 11.1 28.3 16.3 C 23.1 21.5 20.1 28.6 20 35.9 C 19.9 40.1 21 44.3 23.1 47.9 C 26 52.8 29.9 57.2 34.4 60.7 C 35.4 61.5 36 62.7 36 64 L 36 72 L 36 80 C 36 82.1 36.8 84.2 38.3 85.7 C 39.8 87.2 41.9 88 44 88 L 52 88 C 54.1 88 56.2 87.2 57.7 85.7 C 59.2 84.2 60 82.1 60 80 L 60 72 L 60 64 C 60 62.7 60.6 61.5 61.6 60.7 C 66.1 57.2 70 52.8 72.9 47.9 C 75 44.3 76.1 40.1 76 35.9 C 75.9 28.5 72.9 21.5 67.7 16.3 C 62.4 11.1 55.4 8.1 48 8 L 48 8 Z " fill-rule="evenodd" fill="none" stroke="none" stroke-width="16" mask="url(#_mask_Mv5jPGlI95DNKNll3UFlPdWY8maMnFQL)"/></svg>
